server/uploads/eletronicos.svg

<?xml version="1.0" encoding="UTF-8" standalone="no"?>
<!DOCTYPE svg PUBLIC "-//W3C//DTD SVG 1.1//EN" "http://www.w3.org/Graphics/SVG/1.1/DTD/svg11.dtd">
<svg version="1.1" xmlns="http://www.w3.org/2000/svg" xmlns:xlink="http://www.w3.org/1999/xlink" preserveAspectRatio="xMidYMid meet" viewBox="0 0 64 64" width="64" height="64"><defs><path d="M18 26C16.9 26 16 24.96 16 23.67C16 22.03 16 8.97 16 7.33C16 6.04 16.9 5 18 5C20.8 5 43.2 5 46 5C47.11 5 48 6.04 48 7.33C48 8.97 48 22.03 48 23.67C48 24.96 47.11 26 46 26C40.4 26 20.8 26 18 26Z" id="a2hV74ejr"></path><path d="M47.48 0.5C50.05 0.5 52.15 2.59 52.15 5.16C52.15 7.3 52.15 24.45 52.15 26.6C52.15 28.19 51.77 29.78 51.06 31.2C51.06 31.2 51.06 31.2 51.06 31.2C50.42 32.48 50.08 33.91 50.08 35.34C50.08 37.69 50.08 56.49 50.08 58.84C50.08 61.41 47.99 63.5 45.42 63.5C42.74 63.5 21.26 63.5 18.58 63.5C16.01 63.5 13.92 61.41 13.92 58.84C13.92 56.49 13.92 37.69 13.92 35.34C13.92 33.91 13.58 32.48 12.94 31.21C12.94 31.21 12.94 31.21 12.94 31.21C12.23 29.78 11.85 28.19 11.85 26.6C11.85 24.45 11.85 7.3 11.85 5.16C11.85 2.59 13.95 0.5 16.52 0.5C22.71 0.5 44.39 0.5 47.48 0.5ZM50.1 30.73C50.74 29.45 51.08 28.02 51.08 26.6C51.08 24.45 51.08 7.3 51.08 5.16C51.08 3.18 49.47 1.56 47.48 1.56C44.39 1.56 19.61 1.56 16.52 1.56C14.53 1.56 12.92 3.18 12.92 5.16C12.92 7.3 12.92 24.45 12.92 26.6C12.92 28.02 13.26 29.45 13.9 30.73C13.9 30.73 13.9 30.73 13.9 30.73C14.61 32.15 14.98 33.75 14.98 35.34C14.98 37.69 14.98 56.49 14.98 58.84C14.98 60.82 16.6 62.44 18.58 62.44C21.26 62.44 42.74 62.44 45.42 62.44C47.4 62.44 49.02 60.82 49.02 58.84C49.02 56.49 49.02 37.69 49.02 35.34C49.02 33.75 49.39 32.15 50.1 30.73C50.1 30.73 50.1 30.73 50.1 30.73Z" id="emcWDNqJR"></path><path d="M19.11 58.31L19.61 58.31L23.74 58.31L24.25 58.31L24.24 57.81L24.24 55.74L24.24 55.24L23.74 55.24L19.61 55.24L19.11 55.24L19.11 55.74L19.11 57.81L19.11 58.31ZM23.74 54.18C24.61 54.18 25.31 54.88 25.31 55.74C25.31 55.95 25.31 57.6 25.31 57.81C25.31 58.67 24.61 59.37 23.74 59.37C23.33 59.37 20.03 59.37 19.61 59.37C18.75 59.37 18.05 58.67 18.05 57.81C18.05 57.6 18.05 55.95 18.05 55.74C18.05 54.88 18.75 54.18 19.61 54.18C20.44 54.18 23.33 54.18 23.74 54.18Z" id="c16OnAqP72"></path><path d="M19.11 50.05L19.61 50.05L23.74 50.05L24.25 50.05L24.24 49.55L24.24 47.48L24.24 46.98L23.74 46.98L19.61 46.98L19.11 46.98L19.11 47.48L19.11 49.55L19.11 50.05ZM23.74 45.92C24.61 45.92 25.31 46.62 25.31 47.48C25.31 47.69 25.31 49.34 25.31 49.55C25.31 50.41 24.61 51.11 23.74 51.11C23.33 51.11 20.03 51.11 19.61 51.11C18.75 51.11 18.05 50.41 18.05 49.55C18.05 49.34 18.05 47.69 18.05 47.48C18.05 46.62 18.75 45.92 19.61 45.92C20.44 45.92 23.33 45.92 23.74 45.92Z" id="c1rZSrZfO8"></path><path d="M19.11 41.79L19.61 41.79L23.74 41.79L24.25 41.79L24.24 41.29L24.24 39.23L24.24 38.73L23.74 38.73L19.61 38.73L19.11 38.73L19.11 39.23L19.11 41.29L19.11 41.79ZM23.74 37.66C24.61 37.66 25.31 38.36 25.31 39.23C25.31 39.43 25.31 41.08 25.31 41.29C25.31 42.15 24.61 42.85 23.74 42.85C23.33 42.85 20.03 42.85 19.61 42.85C18.75 42.85 18.05 42.15 18.05 41.29C18.05 41.08 18.05 39.43 18.05 39.23C18.05 38.36 18.75 37.66 19.61 37.66C20.44 37.66 23.33 37.66 23.74 37.66Z" id="f54OXGnpM"></path><path d="M29.44 58.31L29.94 58.31L34.07 58.31L34.57 58.31L34.57 57.81L34.56 55.74L34.56 55.24L34.06 55.24L29.94 55.24L29.44 55.24L29.44 55.74L29.44 57.81L29.44 58.31ZM34.06 54.18C34.93 54.18 35.63 54.88 35.63 55.74C35.63 55.95 35.63 57.6 35.63 57.81C35.63 58.67 34.93 59.37 34.06 59.37C33.65 59.37 30.35 59.37 29.94 59.37C29.07 59.37 28.37 58.67 28.37 57.81C28.37 57.6 28.37 55.95 28.37 55.74C28.37 54.88 29.07 54.18 29.94 54.18C30.76 54.18 33.65 54.18 34.06 54.18Z" id="cfVHtsazp"></path><path d="M29.44 50.05L29.94 50.05L34.07 50.05L34.57 50.05L34.57 49.55L34.56 47.48L34.56 46.98L34.06 46.98L29.94 46.98L29.44 46.98L29.44 47.48L29.44 49.55L29.44 50.05ZM34.06 45.92C34.93 45.92 35.63 46.62 35.63 47.48C35.63 47.69 35.63 49.34 35.63 49.55C35.63 50.41 34.93 51.11 34.06 51.11C33.65 51.11 30.35 51.11 29.94 51.11C29.07 51.11 28.37 50.41 28.37 49.55C28.37 49.34 28.37 47.69 28.37 47.48C28.37 46.62 29.07 45.92 29.94 45.92C30.76 45.92 33.65 45.92 34.06 45.92Z" id="b7taF1KTNR"></path><path d="M29.44 41.79L29.94 41.79L34.07 41.79L34.57 41.79L34.57 41.29L34.56 39.23L34.56 38.73L34.06 38.73L29.94 38.73L29.44 38.73L29.44 39.23L29.44 41.29L29.44 41.79ZM34.06 37.66C34.93 37.66 35.63 38.36 35.63 39.23C35.63 39.43 35.63 41.08 35.63 41.29C35.63 42.15 34.93 42.85 34.06 42.85C33.65 42.85 30.35 42.85 29.94 42.85C29.07 42.85 28.37 42.15 28.37 41.29C28.37 41.08 28.37 39.43 28.37 39.23C28.37 38.36 29.07 37.66 29.94 37.66C30.76 37.66 33.65 37.66 34.06 37.66Z" id="d4nUsraufT"></path><path d="M35.1 29.4C36.53 29.4 37.69 30.57 37.69 32C37.69 33.43 36.53 34.6 35.1 34.6C34.48 34.6 29.52 34.6 28.9 34.6C27.47 34.6 26.31 33.43 26.31 32C26.31 30.57 27.47 29.4 28.9 29.4C30.14 29.4 34.48 29.4 35.1 29.4ZM35.1 33.53C35.94 33.53 36.63 32.84 36.63 32C36.63 31.16 35.94 30.47 35.1 30.47C34.48 30.47 29.52 30.47 28.9 30.47C28.06 30.47 27.37 31.16 27.37 32C27.37 32.84 28.06 33.53 28.9 33.53C30.14 33.53 34.48 33.53 35.1 33.53Z" id="b2pveh8g6U"></path><path d="M39.76 58.31L40.26 58.31L44.39 58.31L44.89 58.31L44.89 57.81L44.89 55.74L44.89 55.24L44.39 55.24L40.26 55.24L39.76 55.24L39.76 55.74L39.76 57.81L39.76 58.31ZM44.39 54.18C45.25 54.18 45.95 54.88 45.95 55.74C45.95 55.95 45.95 57.6 45.95 57.81C45.95 58.67 45.25 59.37 44.39 59.37C43.97 59.37 40.67 59.37 40.26 59.37C39.4 59.37 38.69 58.67 38.69 57.81C38.69 57.6 38.69 55.95 38.69 55.74C38.69 54.88 39.4 54.18 40.26 54.18C41.08 54.18 43.97 54.18 44.39 54.18Z" id="b20UnSrbwQ"></path><path d="M39.76 50.05L40.26 50.05L44.39 50.05L44.89 50.05L44.89 49.55L44.89 47.48L44.89 46.98L44.39 46.98L40.26 46.98L39.76 46.98L39.76 47.48L39.76 49.55L39.76 50.05ZM44.39 45.92C45.25 45.92 45.95 46.62 45.95 47.48C45.95 47.69 45.95 49.34 45.95 49.55C45.95 50.41 45.25 51.11 44.39 51.11C43.97 51.11 40.67 51.11 40.26 51.11C39.4 51.11 38.69 50.41 38.69 49.55C38.69 49.34 38.69 47.69 38.69 47.48C38.69 46.62 39.4 45.92 40.26 45.92C41.08 45.92 43.97 45.92 44.39 45.92Z" id="e7I5ndlZz"></path><path d="M39.76 41.79L40.26 41.79L44.39 41.79L44.89 41.79L44.89 41.29L44.89 39.23L44.89 38.73L44.39 38.73L40.26 38.73L39.76 38.73L39.76 39.23L39.76 41.29L39.76 41.79ZM44.39 37.66C45.25 37.66 45.95 38.36 45.95 39.23C45.95 39.43 45.95 41.08 45.95 41.29C45.95 42.15 45.25 42.85 44.39 42.85C43.97 42.85 40.67 42.85 40.26 42.85C39.4 42.85 38.69 42.15 38.69 41.29C38.69 41.08 38.69 39.43 38.69 39.23C38.69 38.36 39.4 37.66 40.26 37.66C41.08 37.66 43.97 37.66 44.39 37.66Z" id="c78TV0ew2k"></path><path d="M41.82 30.47L41.82 30.97L41.82 33.03L41.82 33.53L42.32 33.53L44.39 33.53L44.89 33.53L44.89 33.03L44.89 30.97L44.89 30.47L44.39 30.47L42.32 30.47L41.82 30.47ZM45.95 34.6L40.76 34.6L40.76 29.4L45.95 29.4L45.95 34.6Z" id="e49o36poq"></path><path d="M22.18 33.53L22.18 33.03L22.18 30.97L22.18 30.47L21.68 30.47L19.61 30.47L19.11 30.47L19.11 30.97L19.11 33.03L19.11 33.53L19.61 33.53L21.68 33.53L22.18 33.53ZM23.24 29.4L23.24 34.6L18.05 34.6L18.05 29.4L23.24 29.4Z" id="aHtCRQzQZ"></path></defs><g><g><g><use xlink:href="#a2hV74ejr" opacity="1" fill="#409b70" fill-opacity="1"></use><g><use xlink:href="#a2hV74ejr" opacity="1" fill-opacity="0" stroke="#000000" stroke-width="1" stroke-opacity="0"></use></g></g><g><use xlink:href="#emcWDNqJR" opacity="1" fill="#000000" fill-opacity="1"></use><g><use xlink:href="#emcWDNqJR" opacity="1" fill-opacity="0" stroke="#000000" stroke-width="1" stroke-opacity="1"></use></g></g><g><use xlink:href="#c16OnAqP72" opacity="1" fill="#000000" fill-opacity="1"></use><g><use xlink:href="#c16OnAqP72" opacity="1" fill-opacity="0" stroke="#000000" stroke-width="1" stroke-opacity="1"></use></g></g><g><use xlink:href="#c1rZSrZfO8" opacity="1" fill="#000000" fill-opacity="1"></use><g><use xlink:href="#c1rZSrZfO8" opacity="1" fill-opacity="0" stroke="#000000" stroke-width="1" stroke-opacity="1"></use></g></g><g><use xlink:href="#f54OXGnpM" opacity="1" fill="#000000" fill-opacity="1"></use><g><use xlink:href="#f54OXGnpM" opacity="1" fill-opacity="0" stroke="#000000" stroke-width="1" stroke-opacity="1"></use></g></g><g><use xlink:href="#cfVHtsazp" opacity="1" fill="#000000" fill-opacity="1"></use><g><use xlink:href="#cfVHtsazp" opacity="1" fill-opacity="0" stroke="#000000" stroke-width="1" stroke-opacity="1"></use></g></g><g><use xlink:href="#b7taF1KTNR" opacity="1" fill="#000000" fill-opacity="1"></use><g><use xlink:href="#b7taF1KTNR" opacity="1" fill-opacity="0" stroke="#000000" stroke-width="1" stroke-opacity="1"></use></g></g><g><use xlink:href="#d4nUsraufT" opacity="1" fill="#000000" fill-opacity="1"></use><g><use xlink:href="#d4nUsraufT" opacity="1" fill-opacity="0" stroke="#000000" stroke-width="1" stroke-opacity="1"></use></g></g><g><use xlink:href="#b2pveh8g6U" opacity="1" fill="#000000" fill-opacity="1"></use><g><use xlink:href="#b2pveh8g6U" opacity="1" fill-opacity="0" stroke="#000000" stroke-width="1" stroke-opacity="1"></use></g></g><g><use xlink:href="#b20UnSrbwQ" opacity="1" fill="#000000" fill-opacity="1"></use><g><use xlink:href="#b20UnSrbwQ" opacity="1" fill-opacity="0" stroke="#000000" stroke-width="1" stroke-opacity="1"></use></g></g><g><use xlink:href="#e7I5ndlZz" opacity="1" fill="#000000" fill-opacity="1"></use><g><use xlink:href="#e7I5ndlZz" opacity="1" fill-opacity="0" stroke="#000000" stroke-width="1" stroke-opacity="1"></use></g></g><g><use xlink:href="#c78TV0ew2k" opacity="1" fill="#000000" fill-opacity="1"></use><g><use xlink:href="#c78TV0ew2k" opacity="1" fill-opacity="0" stroke="#000000" stroke-width="1" stroke-opacity="1"></use></g></g><g><use xlink:href="#e49o36poq" opacity="1" fill="#000000" fill-opacity="1"></use><g><use xlink:href="#e49o36poq" opacity="1" fill-opacity="0" stroke="#000000" stroke-width="1" stroke-opacity="1"></use></g></g><g><use xlink:href="#aHtCRQzQZ" opacity="1" fill="#000000" fill-opacity="1"></use><g><use xlink:href="#aHtCRQzQZ" opacity="1" fill-opacity="0" stroke="#000000" stroke-width="1" stroke-opacity="1"></use></g></g></g></g></svg>

<?xml version="1.0" encoding="utf-8"?>
<!-- Generator: Adobe Illustrator 24.1.3, SVG Export Plug-In . SVG Version: 6.00 Build 0)  -->
<svg version="1.1" id="Camada_1" xmlns="http://www.w3.org/2000/svg" xmlns:xlink="http://www.w3.org/1999/xlink" x="0px" y="0px"
	 viewBox="0 0 64 64" style="enable-background:new 0 0 64 64;" xml:space="preserve">
<style type="text/css">
	.st0{clip-path:url(#SVGID_2_);}
	.st1{fill:#409B70;}
	.st2{fill:#322153;stroke:#322153;}
</style>
<g>
	<defs>
		<rect id="SVGID_1_" width="64" height="64"/>
	</defs>
	<clipPath id="SVGID_2_">
		<use xlink:href="#SVGID_1_"  style="overflow:visible;"/>
	</clipPath>
	<g class="st0">
		<path class="st1" d="M46,26H18c-1.1,0-2-1-2-2.3V7.3C16,6,16.9,5,18,5h28c1.1,0,2,1,2,2.3v16.3C48,25,47.1,26,46,26z"/>
		<path class="st2" d="M16.5,0.5h31c2.6,0,4.7,2.1,4.7,4.7v21.4c0,1.6-0.4,3.2-1.1,4.6l0,0c-0.6,1.3-1,2.7-1,4.1v23.5
			c0,2.6-2.1,4.7-4.7,4.7H18.6c-2.6,0-4.7-2.1-4.7-4.7V35.3c0-1.4-0.3-2.9-1-4.1l0,0c-0.7-1.4-1.1-3-1.1-4.6V5.2
			C11.9,2.6,13.9,0.5,16.5,0.5z M50.1,30.7L50.1,30.7c0.6-1.3,1-2.7,1-4.1V5.2c0-2-1.6-3.6-3.6-3.6h-31c-2,0-3.6,1.6-3.6,3.6v21.4
			c0,1.4,0.3,2.9,1,4.1l0,0c0.7,1.4,1.1,3,1.1,4.6v23.5c0,2,1.6,3.6,3.6,3.6h26.8c2,0,3.6-1.6,3.6-3.6V35.3
			C49,33.7,49.4,32.2,50.1,30.7z"/>
		<path class="st2" d="M19.1,57.8v0.5h0.5h4.1h0.5l0-0.5l0-2.1l0-0.5h-0.5h-4.1h-0.5v0.5V57.8z M19.6,54.2h4.1
			c0.9,0,1.6,0.7,1.6,1.6v2.1c0,0.9-0.7,1.6-1.6,1.6h-4.1c-0.9,0-1.6-0.7-1.6-1.6v-2.1C18,54.9,18.8,54.2,19.6,54.2z"/>
		<path class="st2" d="M19.1,49.5V50h0.5h4.1h0.5l0-0.5l0-2.1l0-0.5h-0.5h-4.1h-0.5v0.5V49.5z M19.6,45.9h4.1c0.9,0,1.6,0.7,1.6,1.6
			v2.1c0,0.9-0.7,1.6-1.6,1.6h-4.1c-0.9,0-1.6-0.7-1.6-1.6v-2.1C18,46.6,18.8,45.9,19.6,45.9z"/>
		<path class="st2" d="M19.1,41.3v0.5h0.5h4.1h0.5l0-0.5l0-2.1l0-0.5h-0.5h-4.1h-0.5v0.5V41.3z M19.6,37.7h4.1
			c0.9,0,1.6,0.7,1.6,1.6v2.1c0,0.9-0.7,1.6-1.6,1.6h-4.1c-0.9,0-1.6-0.7-1.6-1.6v-2.1C18,38.4,18.8,37.7,19.6,37.7z"/>
		<path class="st2" d="M29.4,57.8v0.5h0.5h4.1h0.5l0-0.5l0-2.1l0-0.5h-0.5h-4.1h-0.5v0.5V57.8z M29.9,54.2h4.1
			c0.9,0,1.6,0.7,1.6,1.6v2.1c0,0.9-0.7,1.6-1.6,1.6h-4.1c-0.9,0-1.6-0.7-1.6-1.6v-2.1C28.4,54.9,29.1,54.2,29.9,54.2z"/>
		<path class="st2" d="M29.4,49.5V50h0.5h4.1h0.5l0-0.5l0-2.1l0-0.5h-0.5h-4.1h-0.5v0.5V49.5z M29.9,45.9h4.1c0.9,0,1.6,0.7,1.6,1.6
			v2.1c0,0.9-0.7,1.6-1.6,1.6h-4.1c-0.9,0-1.6-0.7-1.6-1.6v-2.1C28.4,46.6,29.1,45.9,29.9,45.9z"/>
		<path class="st2" d="M29.4,41.3v0.5h0.5h4.1h0.5l0-0.5l0-2.1l0-0.5h-0.5h-4.1h-0.5v0.5V41.3z M29.9,37.7h4.1
			c0.9,0,1.6,0.7,1.6,1.6v2.1c0,0.9-0.7,1.6-1.6,1.6h-4.1c-0.9,0-1.6-0.7-1.6-1.6v-2.1C28.4,38.4,29.1,37.7,29.9,37.7z"/>
		<path class="st2" d="M28.9,29.4h6.2c1.4,0,2.6,1.2,2.6,2.6s-1.2,2.6-2.6,2.6h-6.2c-1.4,0-2.6-1.2-2.6-2.6S27.5,29.4,28.9,29.4z
			 M28.9,33.5h6.2c0.8,0,1.5-0.7,1.5-1.5c0-0.8-0.7-1.5-1.5-1.5h-6.2c-0.8,0-1.5,0.7-1.5,1.5C27.4,32.8,28.1,33.5,28.9,33.5z"/>
		<path class="st2" d="M39.8,57.8v0.5h0.5h4.1h0.5l0-0.5l0-2.1l0-0.5h-0.5h-4.1h-0.5v0.5V57.8z M40.3,54.2h4.1
			c0.9,0,1.6,0.7,1.6,1.6v2.1c0,0.9-0.7,1.6-1.6,1.6h-4.1c-0.9,0-1.6-0.7-1.6-1.6v-2.1C38.7,54.9,39.4,54.2,40.3,54.2z"/>
		<path class="st2" d="M39.8,49.5V50h0.5h4.1h0.5l0-0.5l0-2.1l0-0.5h-0.5h-4.1h-0.5v0.5V49.5z M40.3,45.9h4.1c0.9,0,1.6,0.7,1.6,1.6
			v2.1c0,0.9-0.7,1.6-1.6,1.6h-4.1c-0.9,0-1.6-0.7-1.6-1.6v-2.1C38.7,46.6,39.4,45.9,40.3,45.9z"/>
		<path class="st2" d="M39.8,41.3v0.5h0.5h4.1h0.5l0-0.5l0-2.1l0-0.5h-0.5h-4.1h-0.5v0.5V41.3z M40.3,37.7h4.1
			c0.9,0,1.6,0.7,1.6,1.6v2.1c0,0.9-0.7,1.6-1.6,1.6h-4.1c-0.9,0-1.6-0.7-1.6-1.6v-2.1C38.7,38.4,39.4,37.7,40.3,37.7z"/>
		<path class="st2" d="M42.3,30.5h-0.5V31V33v0.5h0.5h2.1h0.5V33V31v-0.5h-0.5H42.3z M46,29.4v5.2h-5.2v-5.2H46z"/>
		<path class="st2" d="M21.7,33.5h0.5V33V31v-0.5h-0.5h-2.1h-0.5V31V33v0.5h0.5H21.7z M18,29.4h5.2v5.2H18V29.4z"/>
	</g>
</g>
</svg>
